delete-sweep.svg

<svg fill="currentColor" viewBox="0 0 24 24"><path d="M15 16h4v2h-4zm0-8h7v2h-7zm0 4h6v2h-6zM3 18a2 2 0 0 0 2 2h6a2 2 0 0 0 2-2V8H3zM14 5h-3l-1-1H6L5 5H2v2h12z"/></svg>

<svg  viewBox="0 0 24 24" fill="currentColor"><path  d="M15,16H19V18H15V16M15,8H22V10H15V8M15,12H21V14H15V12M3,18A2,2 0 0,0 5,20H11A2,2 0 0,0 13,18V8H3V18M14,5H11L10,4H6L5,5H2V7H14V5Z"/></svg>
